; G-code generated by image_to_gcode.py
; Date: 2026-05-06 14:42:58
; Bed size: 35.0x35.0 mm
; Contours: 2
; Total points: 162

G21        ; Unit: mm
G90        ; Absolute positioning
G0 Z5.0    ; Pen UP (servo)
G0 X0 Y0   ; Home position

; --- Contour 1/2 (152 points) ---
G0 Z5.0
G0 X9.45 Y24.96
G1 Z0.0 F200
G1 X7.84 Y24.46
G1 X5.88 Y23.62
G1 X4.41 Y22.71
G1 X3.15 Y21.66
G1 X2.03 Y20.41
G1 X1.19 Y19.14
G1 X0.49 Y17.61
G1 X0.28 Y16.62
G1 X2.66 Y16.98
G1 X5.32 Y16.91
G1 X6.58 Y16.55
G1 X7.49 Y15.99
G1 X8.26 Y15.09
G1 X8.47 Y14.66
G1 X8.61 Y13.89
G1 X8.82 Y13.89
G1 X9.8 Y14.38
G1 X10.92 Y14.59
G1 X12.04 Y14.52
G1 X12.81 Y14.31
G1 X14.07 Y13.68
G1 X15.26 Y12.77
G1 X16.52 Y11.45
G1 X17.43 Y10.11
G1 X17.57 Y10.11
G1 X18.34 Y11.38
G1 X19.67 Y12.91
G1 X20.93 Y13.89
G1 X21.91 Y14.38
G1 X22.96 Y14.66
G1 X24.36 Y14.66
G1 X25.48 Y14.38
G1 X26.67 Y13.75
G1 X26.81 Y14.88
G1 X27.23 Y15.64
G1 X28.0 Y16.34
G1 X28.7 Y16.7
G1 X29.96 Y16.98
G1 X31.36 Y17.05
G1 X33.11 Y16.91
G1 X34.65 Y16.62
G1 X34.65 Y17.12
G1 X34.44 Y17.95
G1 X33.74 Y19.56
G1 X32.97 Y20.69
G1 X31.64 Y22.02
G1 X29.61 Y23.41
G1 X28.07 Y24.19
G1 X25.97 Y24.96
G1 X25.76 Y24.96
G1 X25.69 Y24.82
G1 X26.04 Y24.46
G1 X26.46 Y23.62
G1 X26.6 Y22.93
G1 X26.53 Y22.3
G1 X26.18 Y21.66
G1 X25.69 Y21.18
G1 X24.43 Y20.48
G1 X23.8 Y20.27
G1 X21.63 Y19.84
G1 X19.81 Y19.77
G1 X19.6 Y20.12
G1 X19.04 Y23.2
G1 X19.67 Y19.84
G1 X20.93 Y19.77
G1 X23.24 Y20.12
G1 X24.78 Y20.62
G1 X25.76 Y21.18
G1 X26.32 Y21.8
G1 X26.6 Y22.65
G1 X26.53 Y23.34
G1 X26.32 Y23.98
G1 X25.97 Y24.61
G1 X25.69 Y24.89
G1 X25.97 Y24.96
G1 X27.72 Y24.32
G1 X29.54 Y23.41
G1 X31.57 Y22.02
G1 X32.97 Y20.62
G1 X33.67 Y19.63
G1 X34.3 Y18.38
G1 X34.65 Y17.12
G1 X34.65 Y16.7
G1 X34.37 Y16.62
G1 X33.11 Y16.91
G1 X31.36 Y17.05
G1 X29.96 Y16.98
G1 X28.7 Y16.7
G1 X27.93 Y16.34
G1 X27.23 Y15.71
G1 X26.81 Y14.88
G1 X26.6 Y13.75
G1 X25.83 Y14.25
G1 X24.36 Y14.66
G1 X22.96 Y14.66
G1 X21.7 Y14.31
G1 X20.86 Y13.89
G1 X19.6 Y12.91
G1 X18.55 Y11.72
G1 X17.5 Y10.18
G1 X17.36 Y10.25
G1 X16.52 Y11.52
G1 X15.33 Y12.77
G1 X14.35 Y13.54
G1 X13.37 Y14.11
G1 X12.04 Y14.52
G1 X10.92 Y14.59
G1 X9.8 Y14.38
G1 X9.17 Y14.18
G1 X8.75 Y13.89
G1 X8.54 Y14.11
G1 X8.47 Y14.66
G1 X8.26 Y15.16
G1 X7.56 Y15.99
G1 X6.58 Y16.55
G1 X5.32 Y16.91
G1 X2.66 Y16.98
G1 X0.63 Y16.62
G1 X0.28 Y16.7
G1 X0.49 Y17.61
G1 X1.19 Y19.08
G1 X2.03 Y20.34
G1 X3.22 Y21.66
G1 X4.48 Y22.71
G1 X5.95 Y23.62
G1 X7.28 Y24.25
G1 X9.45 Y24.96
G1 X9.73 Y24.89
G1 X8.96 Y24.19
G1 X8.54 Y23.48
G1 X8.4 Y22.93
G1 X8.54 Y22.09
G1 X8.89 Y21.59
G1 X10.15 Y20.83
G1 X11.34 Y20.41
G1 X13.72 Y19.91
G1 X15.4 Y19.77
G1 X16.1 Y23.2
G1 X15.47 Y19.98
G1 X15.33 Y19.77
G1 X13.72 Y19.91
G1 X11.34 Y20.41
G1 X9.52 Y21.18
G1 X8.89 Y21.66
G1 X8.47 Y22.3
G1 X8.4 Y22.93
G1 X8.54 Y23.41
G1 X8.96 Y24.12
G1 X9.73 Y24.82
G1 X9.73 Y24.96
G1 X9.52 Y24.96

; --- Contour 2/2 (10 points) ---
G0 Z5.0
G0 X16.24 Y23.2
G1 Z0.0 F200
G1 X16.24 Y23.0
G1 X16.94 Y21.38
G1 X18.34 Y21.45
G1 X18.9 Y23.2
G1 X18.41 Y21.66
G1 X18.2 Y21.38
G1 X17.01 Y21.38
G1 X16.8 Y21.59
G1 X16.24 Y23.13

G0 Z5.0    ; Pen UP
G0 X0 Y0   ; Home
M2         ; End program