; G-code generated by image_to_gcode.py
; Date: 2026-05-06 14:34:04
; Bed size: 35.0x35.0 mm
; Contours: 3
; Total points: 93

G21        ; Unit: mm
G90        ; Absolute positioning
G0 Z5.0    ; Pen UP (servo)
G0 X0 Y0   ; Home position

; --- Contour 1/3 (27 points) ---
G0 Z5.0
G0 X17.96 Y29.25
G1 Z0.0 F200
G1 X15.15 Y20.48
G1 X14.94 Y20.2
G1 X6.24 Y20.13
G1 X15.01 Y20.2
G1 X15.01 Y20.06
G1 X6.24 Y19.92
G1 X6.03 Y20.13
G1 X5.75 Y20.13
G1 X5.82 Y19.92
G1 X13.19 Y14.59
G1 X13.19 Y14.31
G1 X10.45 Y5.96
G1 X10.38 Y5.4
G1 X10.52 Y5.4
G1 X18.17 Y11.01
G1 X25.74 Y5.54
G1 X25.88 Y5.68
G1 X23.01 Y14.45
G1 X30.3 Y19.78
G1 X30.65 Y20.13
G1 X30.65 Y20.27
G1 X30.37 Y20.34
G1 X21.18 Y20.27
G1 X20.97 Y20.55
G1 X18.17 Y29.18
G1 X18.03 Y29.25

; --- Contour 2/3 (8 points) ---
G0 Z5.0
G0 X17.96 Y29.18
G1 Z0.0 F200
G1 X18.03 Y29.25
G1 X18.17 Y29.04
G1 X17.96 Y28.76
G1 X15.36 Y20.41
G1 X15.08 Y20.13
G1 X15.01 Y20.2
G1 X17.96 Y29.11

; --- Contour 3/3 (58 points) ---
G0 Z5.0
G0 X18.1 Y28.97
G1 Z0.0 F200
G1 X18.17 Y29.04
G1 X18.31 Y28.83
G1 X21.11 Y20.27
G1 X30.44 Y20.27
G1 X30.3 Y20.13
G1 X21.11 Y20.06
G1 X20.83 Y20.34
G1 X18.45 Y27.57
G1 X18.17 Y28.69
G1 X19.57 Y24.13
G1 X20.97 Y20.13
G1 X30.3 Y20.06
G1 X23.43 Y15.15
G1 X22.8 Y14.59
G1 X22.8 Y14.31
G1 X25.53 Y6.03
G1 X22.8 Y14.52
G1 X23.5 Y15.15
G1 X30.23 Y19.99
G1 X30.44 Y20.27
G1 X30.65 Y20.2
G1 X30.23 Y19.78
G1 X23.01 Y14.52
G1 X23.5 Y12.77
G1 X25.53 Y6.8
G1 X25.74 Y5.82
G1 X25.88 Y5.68
G1 X25.74 Y5.54
G1 X25.46 Y5.82
G1 X25.53 Y5.89
G1 X25.39 Y5.82
G1 X18.17 Y11.01
G1 X10.45 Y5.47
G1 X10.45 Y5.96
G1 X13.19 Y14.31
G1 X13.19 Y14.66
G1 X5.75 Y20.06
G1 X5.82 Y20.13
G1 X6.17 Y19.99
G1 X13.4 Y14.66
G1 X13.4 Y14.31
G1 X10.59 Y5.75
G1 X18.17 Y11.22
G1 X25.39 Y6.03
G1 X19.22 Y10.59
G1 X18.17 Y11.22
G1 X17.75 Y11.01
G1 X10.73 Y5.82
G1 X10.66 Y5.89
G1 X13.4 Y14.31
G1 X13.4 Y14.73
G1 X6.31 Y19.92
G1 X13.75 Y20.06
G1 X14.03 Y19.99
G1 X15.22 Y20.13
G1 X17.68 Y27.85
G1 X18.1 Y28.9

G0 Z5.0    ; Pen UP
G0 X0 Y0   ; Home
M2         ; End program