; G-code generated by image_to_gcode.py
; Date: 2026-05-06 14:37:12
; Bed size: 35.0x35.0 mm
; Contours: 79
; Total points: 1380

G21        ; Unit: mm
G90        ; Absolute positioning
G0 Z5.0    ; Pen UP (servo)
G0 X0 Y0   ; Home position

; --- Contour 1/79 (11 points) ---
G0 Z5.0
G0 X8.47 Y18.97
G1 Z0.0 F200
G1 X8.19 Y18.83
G1 X7.56 Y18.13
G1 X7.49 Y17.85
G1 X7.63 Y17.57
G1 X7.91 Y17.36
G1 X8.68 Y17.5
G1 X9.31 Y18.06
G1 X9.52 Y18.62
G1 X9.17 Y19.04
G1 X8.54 Y18.97

; --- Contour 2/79 (12 points) ---
G0 Z5.0
G0 X8.61 Y19.04
G1 Z0.0 F200
G1 X8.12 Y18.83
G1 X7.63 Y18.34
G1 X7.49 Y17.85
G1 X7.63 Y17.5
G1 X7.84 Y17.36
G1 X8.54 Y17.43
G1 X9.31 Y17.99
G1 X9.52 Y18.62
G1 X9.45 Y18.83
G1 X9.17 Y19.04
G1 X8.68 Y19.04

; --- Contour 3/79 (18 points) ---
G0 Z5.0
G0 X8.68 Y18.83
G1 Z0.0 F200
G1 X8.19 Y18.55
G1 X8.75 Y18.83
G1 X9.1 Y18.83
G1 X9.24 Y18.69
G1 X9.17 Y18.27
G1 X8.54 Y17.71
G1 X8.05 Y17.57
G1 X7.77 Y17.78
G1 X7.77 Y18.06
G1 X8.05 Y18.48
G1 X7.77 Y18.06
G1 X7.84 Y17.64
G1 X8.26 Y17.57
G1 X9.1 Y18.13
G1 X9.24 Y18.34
G1 X9.24 Y18.76
G1 X8.75 Y18.83

; --- Contour 4/79 (10 points) ---
G0 Z5.0
G0 X9.31 Y17.64
G1 Z0.0 F200
G1 X9.31 Y17.29
G1 X9.17 Y17.15
G1 X9.1 Y17.36
G1 X8.96 Y17.36
G1 X9.1 Y17.29
G1 X9.17 Y17.01
G1 X9.17 Y17.15
G1 X9.45 Y17.29
G1 X9.38 Y17.57

; --- Contour 5/79 (13 points) ---
G0 Z5.0
G0 X8.89 Y16.8
G1 Z0.0 F200
G1 X9.38 Y16.8
G1 X9.66 Y16.66
G1 X9.8 Y16.24
G1 X9.59 Y15.68
G1 X9.17 Y15.26
G1 X8.75 Y15.05
G1 X8.19 Y14.98
G1 X7.84 Y15.12
G1 X7.7 Y15.4
G1 X7.77 Y16.03
G1 X8.12 Y16.45
G1 X8.82 Y16.8

; --- Contour 6/79 (11 points) ---
G0 Z5.0
G0 X8.75 Y16.73
G1 Z0.0 F200
G1 X9.52 Y16.73
G1 X9.8 Y16.31
G1 X9.73 Y15.96
G1 X9.1 Y15.26
G1 X8.75 Y15.05
G1 X8.19 Y14.98
G1 X7.77 Y15.26
G1 X7.7 Y15.82
G1 X8.19 Y16.45
G1 X8.68 Y16.73

; --- Contour 7/79 (12 points) ---
G0 Z5.0
G0 X8.75 Y16.52
G1 Z0.0 F200
G1 X8.47 Y16.31
G1 X8.68 Y16.24
G1 X8.4 Y16.31
G1 X7.91 Y15.68
G1 X7.91 Y15.47
G1 X8.12 Y15.26
G1 X8.82 Y15.33
G1 X9.52 Y16.03
G1 X9.52 Y16.38
G1 X9.31 Y16.59
G1 X8.82 Y16.52

; --- Contour 8/79 (11 points) ---
G0 Z5.0
G0 X8.89 Y16.59
G1 Z0.0 F200
G1 X8.26 Y16.24
G1 X7.98 Y15.89
G1 X7.91 Y15.4
G1 X8.05 Y15.26
G1 X8.61 Y15.26
G1 X9.31 Y15.68
G1 X9.52 Y16.03
G1 X9.52 Y16.45
G1 X9.31 Y16.59
G1 X8.96 Y16.59

; --- Contour 9/79 (4 points) ---
G0 Z5.0
G0 X9.73 Y15.61
G1 Z0.0 F200
G1 X9.59 Y15.19
G1 X9.73 Y15.33
G1 X9.73 Y15.54

; --- Contour 10/79 (4 points) ---
G0 Z5.0
G0 X8.89 Y14.84
G1 Z0.0 F200
G1 X8.4 Y14.84
G1 X8.82 Y14.77
G1 X8.82 Y14.91

; --- Contour 11/79 (13 points) ---
G0 Z5.0
G0 X7.63 Y14.98
G1 Z0.0 F200
G1 X7.56 Y14.91
G1 X7.77 Y14.7
G1 X7.84 Y14.84
G1 X7.84 Y14.63
G1 X7.28 Y14.28
G1 X7.35 Y14.42
G1 X7.49 Y14.42
G1 X7.49 Y14.56
G1 X7.7 Y14.49
G1 X7.84 Y14.63
G1 X7.63 Y14.77
G1 X7.56 Y14.98

; --- Contour 12/79 (5 points) ---
G0 Z5.0
G0 X7.0 Y15.61
G1 Z0.0 F200
G1 X7.35 Y15.26
G1 X7.49 Y15.4
G1 X7.14 Y15.75
G1 X7.0 Y15.68

; --- Contour 13/79 (7 points) ---
G0 Z5.0
G0 X7.0 Y15.82
G1 Z0.0 F200
G1 X7.49 Y15.47
G1 X7.35 Y15.26
G1 X7.0 Y15.61
G1 X6.79 Y15.47
G1 X7.0 Y15.61
G1 X6.93 Y15.82

; --- Contour 14/79 (10 points) ---
G0 Z5.0
G0 X6.44 Y16.31
G1 Z0.0 F200
G1 X6.58 Y16.38
G1 X6.65 Y16.24
G1 X6.51 Y16.1
G1 X6.44 Y16.17
G1 X6.51 Y16.1
G1 X6.37 Y15.96
G1 X6.23 Y15.96
G1 X6.16 Y16.1
G1 X6.37 Y16.31

; --- Contour 15/79 (7 points) ---
G0 Z5.0
G0 X6.44 Y16.38
G1 Z0.0 F200
G1 X6.23 Y16.24
G1 X6.16 Y15.96
G1 X6.37 Y15.96
G1 X6.65 Y16.17
G1 X6.65 Y16.38
G1 X6.51 Y16.38

; --- Contour 16/79 (7 points) ---
G0 Z5.0
G0 X6.44 Y16.59
G1 Z0.0 F200
G1 X6.79 Y16.59
G1 X6.93 Y16.31
G1 X6.58 Y15.82
G1 X6.23 Y15.68
G1 X5.88 Y16.03
G1 X6.37 Y16.59

; --- Contour 17/79 (9 points) ---
G0 Z5.0
G0 X6.51 Y16.66
G1 Z0.0 F200
G1 X5.95 Y16.24
G1 X5.88 Y15.96
G1 X6.02 Y15.75
G1 X6.51 Y15.75
G1 X6.79 Y15.96
G1 X6.93 Y16.38
G1 X6.86 Y16.59
G1 X6.58 Y16.66

; --- Contour 18/79 (12 points) ---
G0 Z5.0
G0 X5.74 Y17.08
G1 Z0.0 F200
G1 X5.6 Y17.01
G1 X5.67 Y16.94
G1 X4.83 Y15.4
G1 X4.48 Y14.14
G1 X4.48 Y13.65
G1 X3.99 Y14.49
G1 X4.06 Y15.4
G1 X4.41 Y15.96
G1 X5.39 Y16.87
G1 X5.53 Y16.73
G1 X5.67 Y17.08

; --- Contour 19/79 (9 points) ---
G0 Z5.0
G0 X5.32 Y16.8
G1 Z0.0 F200
G1 X5.39 Y16.87
G1 X5.53 Y16.73
G1 X4.83 Y15.47
G1 X4.41 Y13.72
G1 X3.99 Y14.49
G1 X3.99 Y15.19
G1 X4.34 Y15.82
G1 X5.32 Y16.73

; --- Contour 20/79 (6 points) ---
G0 Z5.0
G0 X10.71 Y17.5
G1 Z0.0 F200
G1 X10.92 Y17.29
G1 X11.06 Y17.29
G1 X11.06 Y17.5
G1 X10.99 Y17.29
G1 X10.78 Y17.43

; --- Contour 21/79 (25 points) ---
G0 Z5.0
G0 X11.2 Y17.15
G1 Z0.0 F200
G1 X11.13 Y16.94
G1 X11.2 Y17.15
G1 X11.34 Y17.08
G1 X11.2 Y16.8
G1 X11.06 Y16.8
G1 X10.78 Y16.52
G1 X10.78 Y16.87
G1 X10.99 Y17.01
G1 X10.85 Y17.01
G1 X10.71 Y16.73
G1 X10.78 Y16.31
G1 X11.06 Y15.96
G1 X11.2 Y16.03
G1 X11.06 Y16.31
G1 X11.13 Y16.38
G1 X11.62 Y16.45
G1 X11.55 Y16.38
G1 X11.34 Y16.52
G1 X11.13 Y16.38
G1 X10.92 Y16.66
G1 X11.06 Y16.8
G1 X11.13 Y16.73
G1 X11.41 Y17.08
G1 X11.27 Y17.15

; --- Contour 22/79 (6 points) ---
G0 Z5.0
G0 X10.92 Y16.24
G1 Z0.0 F200
G1 X11.06 Y16.31
G1 X11.06 Y16.17
G1 X11.2 Y16.1
G1 X11.06 Y15.96
G1 X10.92 Y16.17

; --- Contour 23/79 (5 points) ---
G0 Z5.0
G0 X11.34 Y15.82
G1 Z0.0 F200
G1 X11.27 Y15.47
G1 X11.27 Y15.68
G1 X11.41 Y15.68
G1 X11.34 Y15.75

; --- Contour 24/79 (70 points) ---
G0 Z5.0
G0 X11.9 Y14.42
G1 Z0.0 F200
G1 X10.36 Y14.28
G1 X8.54 Y13.93
G1 X7.28 Y13.58
G1 X5.88 Y13.02
G1 X4.83 Y12.32
G1 X4.48 Y11.76
G1 X4.55 Y11.06
G1 X4.76 Y10.71
G1 X5.53 Y10.08
G1 X6.58 Y9.66
G1 X7.56 Y9.45
G1 X9.8 Y9.52
G1 X11.06 Y9.94
G1 X13.51 Y10.99
G1 X13.86 Y10.99
G1 X13.93 Y10.92
G1 X13.72 Y10.78
G1 X11.97 Y10.15
G1 X10.78 Y9.59
G1 X10.08 Y9.45
G1 X9.31 Y8.68
G1 X9.17 Y8.4
G1 X9.24 Y7.98
G1 X9.94 Y7.63
G1 X11.34 Y7.42
G1 X13.37 Y7.42
G1 X14.28 Y7.56
G1 X14.84 Y7.56
G1 X15.4 Y7.35
G1 X16.24 Y7.42
G1 X16.24 Y7.84
G1 X15.96 Y8.19
G1 X15.47 Y8.26
G1 X15.12 Y8.12
G1 X13.86 Y8.12
G1 X13.44 Y8.26
G1 X13.51 Y8.4
G1 X16.1 Y8.4
G1 X15.96 Y8.82
G1 X15.68 Y8.96
G1 X15.26 Y8.96
G1 X14.63 Y8.75
G1 X13.58 Y8.82
G1 X13.79 Y8.96
G1 X14.56 Y8.96
G1 X15.19 Y9.17
G1 X15.61 Y9.1
G1 X15.54 Y9.31
G1 X15.19 Y9.52
G1 X14.98 Y9.52
G1 X14.35 Y9.17
G1 X14.07 Y9.24
G1 X13.51 Y9.1
G1 X12.81 Y8.75
G1 X10.64 Y8.05
G1 X10.15 Y8.05
G1 X10.36 Y8.26
G1 X12.18 Y8.75
G1 X13.86 Y9.38
G1 X15.68 Y10.29
G1 X17.43 Y11.41
G1 X17.92 Y12.04
G1 X17.85 Y12.67
G1 X17.5 Y13.23
G1 X17.01 Y13.65
G1 X16.31 Y14.0
G1 X15.33 Y14.28
G1 X14.28 Y14.42
G1 X11.97 Y14.42

; --- Contour 25/79 (64 points) ---
G0 Z5.0
G0 X11.83 Y14.35
G1 Z0.0 F200
G1 X14.28 Y14.42
G1 X15.33 Y14.28
G1 X16.31 Y14.0
G1 X16.94 Y13.65
G1 X17.5 Y13.16
G1 X17.92 Y12.46
G1 X17.92 Y12.11
G1 X17.78 Y11.83
G1 X17.01 Y11.13
G1 X15.26 Y10.08
G1 X13.16 Y9.1
G1 X10.15 Y8.19
G1 X10.08 Y7.98
G1 X10.92 Y8.12
G1 X13.79 Y9.17
G1 X14.63 Y9.24
G1 X14.98 Y9.52
G1 X15.19 Y9.52
G1 X15.54 Y9.24
G1 X14.56 Y8.96
G1 X13.79 Y8.96
G1 X13.51 Y8.75
G1 X14.63 Y8.75
G1 X15.26 Y8.96
G1 X15.68 Y8.96
G1 X15.96 Y8.75
G1 X16.1 Y8.47
G1 X16.03 Y8.4
G1 X13.44 Y8.4
G1 X13.44 Y8.19
G1 X15.12 Y8.12
G1 X15.68 Y8.26
G1 X16.17 Y7.91
G1 X16.31 Y7.63
G1 X16.17 Y7.42
G1 X15.4 Y7.35
G1 X14.84 Y7.56
G1 X13.37 Y7.42
G1 X11.34 Y7.42
G1 X9.94 Y7.63
G1 X9.45 Y7.84
G1 X9.17 Y8.12
G1 X9.17 Y8.4
G1 X9.38 Y8.75
G1 X10.15 Y9.45
G1 X10.99 Y9.66
G1 X13.37 Y10.71
G1 X13.93 Y10.85
G1 X13.86 Y11.06
G1 X12.95 Y10.78
G1 X10.5 Y9.73
G1 X9.17 Y9.45
G1 X7.56 Y9.45
G1 X6.16 Y9.8
G1 X5.18 Y10.36
G1 X4.55 Y11.06
G1 X4.48 Y11.76
G1 X4.83 Y12.25
G1 X5.53 Y12.81
G1 X7.28 Y13.58
G1 X9.17 Y14.07
G1 X10.36 Y14.28
G1 X11.76 Y14.35

; --- Contour 26/79 (22 points) ---
G0 Z5.0
G0 X13.44 Y10.43
G1 Z0.0 F200
G1 X13.3 Y10.22
G1 X13.09 Y10.22
G1 X12.95 Y9.94
G1 X12.67 Y9.94
G1 X12.6 Y9.59
G1 X12.32 Y9.66
G1 X12.25 Y9.45
G1 X13.09 Y9.73
G1 X13.3 Y9.73
G1 X13.51 Y9.52
G1 X13.37 Y9.66
G1 X13.44 Y9.87
G1 X13.37 Y9.66
G1 X13.02 Y9.73
G1 X12.88 Y9.59
G1 X12.6 Y9.8
G1 X12.74 Y9.94
G1 X13.02 Y9.94
G1 X13.09 Y10.15
G1 X13.37 Y10.22
G1 X13.44 Y10.36

; --- Contour 27/79 (53 points) ---
G0 Z5.0
G0 X20.02 Y13.09
G1 Z0.0 F200
G1 X20.37 Y11.69
G1 X21.07 Y10.22
G1 X21.49 Y9.59
G1 X22.33 Y8.68
G1 X23.94 Y7.77
G1 X25.2 Y7.49
G1 X25.9 Y7.14
G1 X26.18 Y7.21
G1 X26.6 Y7.63
G1 X26.6 Y8.05
G1 X26.25 Y8.4
G1 X25.27 Y8.54
G1 X24.71 Y8.75
G1 X24.64 Y8.89
G1 X26.39 Y8.61
G1 X26.74 Y8.96
G1 X26.74 Y9.24
G1 X26.46 Y9.66
G1 X26.11 Y9.8
G1 X24.92 Y9.73
G1 X26.39 Y9.73
G1 X26.6 Y9.59
G1 X26.74 Y9.24
G1 X26.74 Y8.96
G1 X26.46 Y8.61
G1 X25.97 Y8.61
G1 X25.48 Y8.82
G1 X24.92 Y8.89
G1 X24.64 Y8.82
G1 X25.55 Y8.47
G1 X26.32 Y8.4
G1 X26.6 Y8.12
G1 X26.53 Y7.42
G1 X26.25 Y7.21
G1 X25.55 Y7.21
G1 X25.2 Y7.49
G1 X23.59 Y7.91
G1 X22.26 Y8.68
G1 X21.07 Y10.15
G1 X20.37 Y11.69
G1 X20.09 Y12.95
G1 X19.95 Y13.09
G1 X19.18 Y12.46
G1 X18.2 Y11.9
G1 X17.36 Y11.06
G1 X16.03 Y10.22
G1 X15.19 Y9.87
G1 X15.96 Y10.22
G1 X17.29 Y11.06
G1 X18.13 Y11.9
G1 X19.11 Y12.46
G1 X20.02 Y13.16

; --- Contour 28/79 (59 points) ---
G0 Z5.0
G0 X22.54 Y14.35
G1 Z0.0 F200
G1 X23.03 Y13.65
G1 X23.52 Y13.23
G1 X24.57 Y13.3
G1 X25.13 Y13.65
G1 X25.55 Y13.65
G1 X25.69 Y13.51
G1 X25.62 Y13.09
G1 X23.94 Y12.88
G1 X23.73 Y12.67
G1 X24.15 Y12.46
G1 X24.85 Y12.32
G1 X25.97 Y12.32
G1 X26.11 Y11.9
G1 X25.97 Y11.69
G1 X25.76 Y11.62
G1 X25.06 Y11.9
G1 X24.22 Y11.9
G1 X23.66 Y12.04
G1 X23.45 Y11.9
G1 X24.5 Y11.27
G1 X24.92 Y11.13
G1 X25.55 Y11.13
G1 X24.92 Y11.13
G1 X23.45 Y11.83
G1 X23.52 Y12.04
G1 X24.22 Y11.9
G1 X25.06 Y11.9
G1 X25.76 Y11.62
G1 X26.11 Y11.9
G1 X26.04 Y12.18
G1 X25.76 Y12.39
G1 X24.85 Y12.32
G1 X23.73 Y12.6
G1 X23.66 Y12.81
G1 X24.78 Y13.02
G1 X25.41 Y13.02
G1 X25.69 Y13.23
G1 X25.69 Y13.44
G1 X25.48 Y13.65
G1 X25.13 Y13.65
G1 X24.57 Y13.3
G1 X23.52 Y13.23
G1 X23.03 Y13.58
G1 X22.54 Y14.35
G1 X22.47 Y14.28
G1 X22.47 Y13.51
G1 X22.82 Y12.25
G1 X23.59 Y10.99
G1 X24.15 Y10.64
G1 X24.71 Y10.64
G1 X25.55 Y10.99
G1 X24.71 Y10.64
G1 X24.15 Y10.64
G1 X23.59 Y10.92
G1 X22.96 Y11.9
G1 X22.61 Y12.88
G1 X22.4 Y14.35
G1 X22.54 Y14.42

; --- Contour 29/79 (19 points) ---
G0 Z5.0
G0 X18.97 Y20.09
G1 Z0.0 F200
G1 X19.11 Y20.09
G1 X19.18 Y19.95
G1 X18.97 Y19.74
G1 X19.04 Y19.25
G1 X18.9 Y19.46
G1 X18.76 Y19.32
G1 X19.04 Y19.04
G1 X18.76 Y19.32
G1 X18.34 Y18.9
G1 X18.13 Y18.9
G1 X18.06 Y19.04
G1 X18.2 Y18.9
G1 X18.41 Y18.97
G1 X18.97 Y19.53
G1 X18.9 Y19.6
G1 X19.04 Y19.81
G1 X18.9 Y19.95
G1 X18.9 Y20.16

; --- Contour 30/79 (11 points) ---
G0 Z5.0
G0 X16.59 Y19.39
G1 Z0.0 F200
G1 X17.01 Y19.32
G1 X17.29 Y19.04
G1 X17.15 Y18.55
G1 X16.94 Y18.34
G1 X16.31 Y18.06
G1 X15.61 Y18.06
G1 X15.26 Y18.27
G1 X15.26 Y18.69
G1 X15.61 Y19.11
G1 X16.52 Y19.39

; --- Contour 31/79 (11 points) ---
G0 Z5.0
G0 X16.45 Y19.32
G1 Z0.0 F200
G1 X16.73 Y19.39
G1 X17.29 Y19.04
G1 X17.22 Y18.69
G1 X16.8 Y18.27
G1 X16.31 Y18.06
G1 X15.61 Y18.06
G1 X15.19 Y18.48
G1 X15.4 Y18.9
G1 X15.89 Y19.25
G1 X16.38 Y19.32

; --- Contour 32/79 (13 points) ---
G0 Z5.0
G0 X16.31 Y19.6
G1 Z0.0 F200
G1 X16.8 Y19.6
G1 X17.22 Y19.46
G1 X17.57 Y18.97
G1 X17.43 Y18.55
G1 X16.94 Y18.06
G1 X16.38 Y17.85
G1 X15.82 Y17.78
G1 X15.33 Y17.92
G1 X14.98 Y18.34
G1 X15.12 Y18.97
G1 X15.61 Y19.39
G1 X16.24 Y19.6

; --- Contour 33/79 (14 points) ---
G0 Z5.0
G0 X16.17 Y19.53
G1 Z0.0 F200
G1 X16.8 Y19.6
G1 X17.15 Y19.46
G1 X17.5 Y19.11
G1 X17.5 Y18.76
G1 X17.22 Y18.34
G1 X16.87 Y18.06
G1 X16.38 Y17.85
G1 X15.82 Y17.78
G1 X15.4 Y17.92
G1 X14.98 Y18.34
G1 X14.98 Y18.62
G1 X15.47 Y19.25
G1 X16.1 Y19.53

; --- Contour 34/79 (8 points) ---
G0 Z5.0
G0 X16.17 Y20.93
G1 Z0.0 F200
G1 X15.89 Y20.65
G1 X15.89 Y20.51
G1 X16.1 Y20.37
G1 X16.52 Y20.44
G1 X16.8 Y20.72
G1 X16.59 Y21.0
G1 X16.24 Y20.93

; --- Contour 35/79 (8 points) ---
G0 Z5.0
G0 X16.24 Y21.0
G1 Z0.0 F200
G1 X15.89 Y20.72
G1 X15.89 Y20.51
G1 X16.03 Y20.37
G1 X16.59 Y20.44
G1 X16.8 Y20.72
G1 X16.66 Y21.0
G1 X16.31 Y21.0

; --- Contour 36/79 (10 points) ---
G0 Z5.0
G0 X16.24 Y21.21
G1 Z0.0 F200
G1 X16.87 Y21.14
G1 X17.01 Y21.0
G1 X17.01 Y20.58
G1 X16.8 Y20.3
G1 X16.52 Y20.16
G1 X15.89 Y20.16
G1 X15.61 Y20.58
G1 X15.68 Y20.86
G1 X16.17 Y21.21

; --- Contour 37/79 (9 points) ---
G0 Z5.0
G0 X16.1 Y21.14
G1 Z0.0 F200
G1 X16.8 Y21.14
G1 X17.01 Y20.93
G1 X16.94 Y20.51
G1 X16.45 Y20.16
G1 X15.96 Y20.16
G1 X15.61 Y20.58
G1 X15.68 Y20.79
G1 X16.03 Y21.07

; --- Contour 38/79 (9 points) ---
G0 Z5.0
G0 X15.47 Y22.75
G1 Z0.0 F200
G1 X15.61 Y22.68
G1 X15.33 Y22.47
G1 X14.91 Y22.54
G1 X15.26 Y22.47
G1 X15.61 Y22.68
G1 X15.4 Y22.75
G1 X15.05 Y22.61
G1 X15.4 Y22.75

; --- Contour 39/79 (10 points) ---
G0 Z5.0
G0 X16.8 Y22.89
G1 Z0.0 F200
G1 X16.59 Y22.82
G1 X16.17 Y22.4
G1 X16.17 Y22.05
G1 X16.59 Y21.7
G1 X17.36 Y21.7
G1 X17.99 Y22.19
G1 X18.06 Y22.47
G1 X17.71 Y22.89
G1 X16.87 Y22.89

; --- Contour 40/79 (12 points) ---
G0 Z5.0
G0 X16.94 Y22.96
G1 Z0.0 F200
G1 X16.52 Y22.82
G1 X16.17 Y22.47
G1 X16.17 Y21.98
G1 X16.59 Y21.7
G1 X16.94 Y21.63
G1 X17.71 Y21.84
G1 X17.99 Y22.12
G1 X18.06 Y22.4
G1 X17.99 Y22.68
G1 X17.78 Y22.89
G1 X17.01 Y22.96

; --- Contour 41/79 (9 points) ---
G0 Z5.0
G0 X17.01 Y22.75
G1 Z0.0 F200
G1 X16.45 Y22.47
G1 X16.38 Y22.12
G1 X16.52 Y21.98
G1 X17.29 Y21.91
G1 X17.78 Y22.26
G1 X17.78 Y22.54
G1 X17.64 Y22.68
G1 X17.08 Y22.75

; --- Contour 42/79 (10 points) ---
G0 Z5.0
G0 X17.01 Y22.68
G1 Z0.0 F200
G1 X17.57 Y22.68
G1 X17.78 Y22.47
G1 X17.71 Y22.19
G1 X17.29 Y21.91
G1 X16.52 Y21.98
G1 X16.38 Y22.12
G1 X16.38 Y22.33
G1 X16.8 Y22.68
G1 X16.94 Y22.68

; --- Contour 43/79 (7 points) ---
G0 Z5.0
G0 X19.04 Y23.73
G1 Z0.0 F200
G1 X19.04 Y23.45
G1 X18.76 Y23.59
G1 X18.69 Y23.52
G1 X18.76 Y23.59
G1 X19.11 Y23.38
G1 X19.11 Y23.66

; --- Contour 44/79 (6 points) ---
G0 Z5.0
G0 X21.07 Y25.76
G1 Z0.0 F200
G1 X21.0 Y25.69
G1 X21.14 Y25.76
G1 X21.35 Y25.55
G1 X21.49 Y25.69
G1 X21.14 Y25.76

; --- Contour 45/79 (4 points) ---
G0 Z5.0
G0 X21.63 Y26.18
G1 Z0.0 F200
G1 X21.42 Y26.04
G1 X21.56 Y25.97
G1 X21.7 Y26.11

; --- Contour 46/79 (76 points) ---
G0 Z5.0
G0 X21.7 Y26.39
G1 Z0.0 F200
G1 X21.07 Y26.11
G1 X20.58 Y25.55
G1 X20.23 Y24.92
G1 X19.18 Y24.01
G1 X17.15 Y23.24
G1 X16.24 Y23.03
G1 X15.54 Y22.33
G1 X14.91 Y22.26
G1 X14.49 Y22.4
G1 X13.02 Y21.77
G1 X12.04 Y21.49
G1 X11.27 Y21.14
G1 X11.06 Y20.93
G1 X10.85 Y20.44
G1 X10.43 Y20.09
G1 X9.94 Y19.88
G1 X9.17 Y20.02
G1 X8.05 Y19.25
G1 X6.58 Y17.85
G1 X5.95 Y17.08
G1 X5.32 Y15.96
G1 X4.9 Y14.98
G1 X4.69 Y14.0
G1 X4.69 Y13.23
G1 X4.9 Y12.67
G1 X5.67 Y13.16
G1 X7.63 Y13.93
G1 X9.38 Y14.35
G1 X9.87 Y14.35
G1 X11.27 Y15.33
G1 X13.44 Y16.31
G1 X16.1 Y17.08
G1 X17.5 Y17.57
G1 X18.13 Y17.92
G1 X18.34 Y17.92
G1 X19.53 Y18.48
G1 X21.07 Y19.46
G1 X21.28 Y19.67
G1 X21.14 Y19.81
G1 X20.93 Y19.74
G1 X20.93 Y19.95
G1 X21.0 Y19.74
G1 X21.21 Y19.81
G1 X21.35 Y19.67
G1 X22.54 Y20.72
G1 X22.75 Y20.72
G1 X23.03 Y20.51
G1 X23.24 Y20.58
G1 X23.03 Y20.51
G1 X23.24 Y20.3
G1 X23.66 Y20.16
G1 X24.99 Y20.16
G1 X28.0 Y21.0
G1 X28.49 Y21.0
G1 X28.63 Y21.21
G1 X28.42 Y21.35
G1 X28.35 Y21.21
G1 X28.21 Y21.42
G1 X28.35 Y21.28
G1 X28.35 Y21.56
G1 X28.49 Y21.35
G1 X28.63 Y21.49
G1 X28.63 Y21.21
G1 X29.12 Y21.84
G1 X29.19 Y22.19
G1 X29.33 Y22.33
G1 X29.4 Y22.96
G1 X29.33 Y23.31
G1 X28.91 Y23.8
G1 X27.65 Y24.36
G1 X25.2 Y25.06
G1 X24.22 Y25.9
G1 X23.38 Y26.32
G1 X22.89 Y26.46
G1 X21.77 Y26.39

; --- Contour 47/79 (51 points) ---
G0 Z5.0
G0 X21.84 Y26.46
G1 Z0.0 F200
G1 X20.93 Y26.04
G1 X20.23 Y24.99
G1 X19.46 Y24.22
G1 X18.41 Y23.66
G1 X16.24 Y23.03
G1 X15.61 Y22.4
G1 X15.33 Y22.26
G1 X14.42 Y22.4
G1 X13.3 Y21.98
G1 X13.16 Y21.84
G1 X12.04 Y21.49
G1 X11.06 Y21.0
G1 X10.99 Y21.07
G1 X10.99 Y20.72
G1 X10.36 Y20.09
G1 X9.94 Y19.88
G1 X9.1 Y20.02
G1 X7.98 Y19.25
G1 X6.72 Y18.06
G1 X5.95 Y17.15
G1 X5.11 Y15.54
G1 X4.69 Y14.0
G1 X4.69 Y13.23
G1 X4.83 Y12.67
G1 X6.65 Y13.58
G1 X8.75 Y14.21
G1 X10.08 Y14.42
G1 X10.85 Y15.05
G1 X12.6 Y15.96
G1 X14.49 Y16.66
G1 X16.59 Y17.22
G1 X18.97 Y18.2
G1 X20.86 Y19.25
G1 X22.61 Y20.72
G1 X23.24 Y20.3
G1 X24.36 Y20.09
G1 X25.34 Y20.23
G1 X28.0 Y21.0
G1 X28.49 Y21.0
G1 X28.84 Y21.35
G1 X29.33 Y22.33
G1 X29.4 Y22.89
G1 X29.26 Y23.45
G1 X28.84 Y23.87
G1 X27.3 Y24.5
G1 X25.41 Y24.99
G1 X24.36 Y25.83
G1 X23.59 Y26.25
G1 X22.89 Y26.46
G1 X21.91 Y26.46

; --- Contour 48/79 (170 points) ---
G0 Z5.0
G0 X22.12 Y26.74
G1 Z0.0 F200
G1 X21.28 Y26.53
G1 X20.93 Y26.32
G1 X20.51 Y25.9
G1 X19.88 Y24.92
